X:1
T:Title
%%score { ( 1 4 ) | ( 2 3 ) }
L:1/8
Q:1/4=120
M:6/4
K:A
V:1 treble nm="Grand Piano"
V:4 treble 
V:2 bass 
V:3 bass 
V:1
 [CE]2 [CE]2 [CE]2 [DF]4 [CE]2 | [Ec]4 [Fc]2 [Ec]6 | [CE]2 [CE]2 [CE]2 [DF]4 E2 | %3
w: Geo.~C.~Stebbins * * * *|||
 [Gd]4 [Fd]2 [Gd]6 | d2 c2 B2 B2 ^A2 B2 | [Ec]4 [Ec]2 [CA]6 | B2 A2 F2 E4 A2 | A4 G2 [CA]6 | %8
w: |||||
 c6 c6 | [CA]2 [EG]2 [DF]2 [CE]6 | z6 .c6 | d12 | [Gd]6 [Fd]6 | B2 A2 B2 c6 | B4 F2 A4 G2 | %15
w: |||||||
 [CA]12 |] %16
w: |
V:2
 [A,,A,]2 [A,,A,]2 [A,,A,]2 [A,,A,]4 [A,,A,]2 | [A,,A,]4 [A,,A,]2 [A,,A,]6 | %2
 [A,,A,]2 [A,,A,]2 [A,,A,]2 [A,,A,]4 [C,A,]2 | [E,B,]4 [E,A,]2 [E,B,]6 | %4
 [E,B,E]2 [E,A,E]2 [E,G,D]2 D2 C2 [E,G,D]2 | [A,,A,]4 [A,,A,]2 [A,,E,]6 | %6
 [D,F,D]2 [D,F,D]2 [D,A,D]2 [C,A,]4 [F,A,C]2 | [E,CE]4 [E,B,D]2 [A,,A,]6 | [A,E]6 [A,E]6 | %9
 [A,,A,]2 [C,A,]2 [D,A,]2 [A,,A,]6 | [A,,A,]4 [C,A,]2 [E,C]4 [A,CF]2 | B,4 A,2 B,6 | %12
 [E,B,]6 [E,A,]6 | [E,G,D]2 [F,C]2 [G,B,D]2 [A,E]6 | [F,B,^D]4 [F,B,D]2 [E,CE]4 [E,B,=D]2 | %15
 [A,,A,]12 |] %16
V:3
 x12 | x12 | x12 | x12 | z6 .[E,G,]6 | x12 | x12 | x12 | x12 | x12 | x12 | E,12 | x12 | x12 | x12 | %15
 x12 |] %16
V:4
 x12 | x12 | x12 | x12 | x12 | x12 | x12 | x12 | x12 | x12 | [Ec]4 [Fc]2 A2 G2 c2 | G4 F2 G6 | %12
 x12 | x12 | x12 | x12 |] %16

